dist/svg/vending-machine-duo-tone.svg

<svg xmlns="http://www.w3.org/2000/svg" viewBox="0 0 24 24"><path d="M5.617 2.283q-.873.101-1.552.781a2.74 2.74 0 0 0-.696 1.116l-.109.32v15l.109.32c.151.445.362.783.695 1.116s.671.544 1.116.695l.32.109h13l.32-.109a2.74 2.74 0 0 0 1.116-.695c.333-.333.544-.671.695-1.116l.109-.32v-15l-.109-.32a2.74 2.74 0 0 0-.696-1.116c-.472-.471-.961-.709-1.606-.783-.425-.049-12.293-.046-12.712.002m12.911 1.59c.239.118.481.36.599.599l.093.188v14.68l-.093.189c-.132.268-.416.534-.674.63-.213.08-.297.081-6.453.081s-6.24-.001-6.453-.081c-.258-.096-.542-.362-.674-.63l-.093-.189-.011-7.26c-.009-5.436 0-7.303.035-7.43.093-.34.433-.7.782-.828.131-.048 1.114-.056 6.454-.049l6.3.007zm-11.001.949c-.627.169-1.14.746-1.248 1.403-.022.132-.038 1.253-.038 2.555 0 2.478.012 2.654.202 3.025.113.223.529.639.752.752.367.188.562.202 2.805.202s2.438-.014 2.805-.202c.223-.113.639-.529.752-.752.19-.371.202-.547.202-3.025 0-1.302-.016-2.423-.038-2.555a1.77 1.77 0 0 0-1.266-1.405c-.333-.086-4.604-.085-4.928.002m8.278.458c-.547.129-.735.839-.33 1.244.197.197.364.236 1.025.236s.828-.039 1.025-.236a.739.739 0 0 0-.348-1.246c-.19-.044-1.183-.042-1.372.002m-3.712 1.006c.048.025.1.066.116.09.017.024.03 1.096.03 2.381.001 2.119-.005 2.344-.065 2.41-.063.069-.183.073-2.167.073-1.899 0-2.108-.006-2.174-.066-.069-.063-.073-.19-.072-2.41 0-1.289.013-2.364.03-2.387.086-.128.2-.135 2.202-.136 1.441-.001 2.037.012 2.1.045m3.712.994c-.547.129-.735.839-.33 1.244.197.197.364.236 1.025.236s.828-.039 1.025-.236a.739.739 0 0 0-.348-1.246c-.19-.044-1.183-.042-1.372.002m0 2c-.547.129-.735.839-.33 1.244.197.197.364.236 1.025.236s.828-.039 1.025-.236a.739.739 0 0 0-.348-1.246c-.19-.044-1.183-.042-1.372.002m-8.278 4.542c-.627.169-1.14.746-1.248 1.403-.05.304-.05 2.244 0 2.548a1.77 1.77 0 0 0 1.144 1.373l.261.094h4.632l.261-.094a1.77 1.77 0 0 0 1.144-1.373c.05-.304.05-2.244 0-2.548a1.77 1.77 0 0 0-1.266-1.405c-.333-.086-4.604-.085-4.928.002m4.566 1.464c.048.025.1.066.116.09.017.024.03.53.03 1.124s-.013 1.1-.03 1.124c-.085.128-.209.136-2.209.136s-2.124-.008-2.209-.136c-.017-.024-.03-.53-.03-1.124s.013-1.1.03-1.123c.086-.128.2-.135 2.202-.136 1.441-.001 2.037.012 2.1.045"/></svg>

<svg fill="none" xmlns="http://www.w3.org/2000/svg" viewBox="0 0 24 24"><path d="M5.617 2.283 C 5.034 2.351,4.519 2.610,4.065 3.064 C 3.732 3.396,3.521 3.735,3.369 4.180 L 3.260 4.500 3.260 12.000 L 3.260 19.500 3.369 19.820 C 3.520 20.265,3.731 20.603,4.064 20.936 C 4.397 21.269,4.735 21.480,5.180 21.631 L 5.500 21.740 12.000 21.740 L 18.500 21.740 18.820 21.631 C 19.265 21.480,19.603 21.269,19.936 20.936 C 20.269 20.603,20.480 20.265,20.631 19.820 L 20.740 19.500 20.740 12.000 L 20.740 4.500 20.631 4.180 C 20.479 3.735,20.268 3.396,19.935 3.064 C 19.463 2.593,18.974 2.355,18.329 2.281 C 17.904 2.232,6.036 2.235,5.617 2.283 M18.528 3.873 C 18.767 3.991,19.009 4.233,19.127 4.472 L 19.220 4.660 19.220 12.000 L 19.220 19.340 19.127 19.529 C 18.995 19.797,18.711 20.063,18.453 20.159 C 18.240 20.239,18.156 20.240,12.000 20.240 C 5.844 20.240,5.760 20.239,5.547 20.159 C 5.289 20.063,5.005 19.797,4.873 19.529 L 4.780 19.340 4.769 12.080 C 4.760 6.644,4.769 4.777,4.804 4.650 C 4.897 4.310,5.237 3.950,5.586 3.822 C 5.717 3.774,6.700 3.766,12.040 3.773 L 18.340 3.780 18.528 3.873 M7.527 4.822 C 6.900 4.991,6.387 5.568,6.279 6.225 C 6.257 6.357,6.241 7.478,6.241 8.780 C 6.241 11.258,6.253 11.434,6.443 11.805 C 6.556 12.028,6.972 12.444,7.195 12.557 C 7.562 12.745,7.757 12.759,10.000 12.759 C 12.243 12.759,12.438 12.745,12.805 12.557 C 13.028 12.444,13.444 12.028,13.557 11.805 C 13.747 11.434,13.759 11.258,13.759 8.780 C 13.759 7.478,13.743 6.357,13.721 6.225 C 13.612 5.558,13.098 4.988,12.455 4.820 C 12.122 4.734,7.851 4.735,7.527 4.822 M15.805 5.280 C 15.258 5.409,15.070 6.119,15.475 6.524 C 15.672 6.721,15.839 6.760,16.500 6.760 C 17.161 6.760,17.328 6.721,17.525 6.524 C 17.938 6.111,17.742 5.409,17.177 5.278 C 16.987 5.234,15.994 5.236,15.805 5.280 M12.093 6.286 C 12.141 6.311,12.193 6.352,12.209 6.376 C 12.226 6.400,12.239 7.472,12.239 8.757 C 12.240 10.876,12.234 11.101,12.174 11.167 C 12.111 11.236,11.991 11.240,10.007 11.240 C 8.108 11.240,7.899 11.234,7.833 11.174 C 7.764 11.111,7.760 10.984,7.761 8.764 C 7.761 7.475,7.774 6.400,7.791 6.377 C 7.877 6.249,7.991 6.242,9.993 6.241 C 11.434 6.240,12.030 6.253,12.093 6.286 M15.805 7.280 C 15.258 7.409,15.070 8.119,15.475 8.524 C 15.672 8.721,15.839 8.760,16.500 8.760 C 17.161 8.760,17.328 8.721,17.525 8.524 C 17.938 8.111,17.742 7.409,17.177 7.278 C 16.987 7.234,15.994 7.236,15.805 7.280 M15.805 9.280 C 15.258 9.409,15.070 10.119,15.475 10.524 C 15.672 10.721,15.839 10.760,16.500 10.760 C 17.161 10.760,17.328 10.721,17.525 10.524 C 17.938 10.111,17.742 9.409,17.177 9.278 C 16.987 9.234,15.994 9.236,15.805 9.280 M7.527 13.822 C 6.900 13.991,6.387 14.568,6.279 15.225 C 6.229 15.529,6.229 17.469,6.279 17.773 C 6.382 18.402,6.818 18.926,7.423 19.146 L 7.684 19.240 10.000 19.240 L 12.316 19.240 12.577 19.146 C 13.182 18.926,13.618 18.402,13.721 17.773 C 13.771 17.469,13.771 15.529,13.721 15.225 C 13.612 14.558,13.098 13.988,12.455 13.820 C 12.122 13.734,7.851 13.735,7.527 13.822 M12.093 15.286 C 12.141 15.311,12.193 15.352,12.209 15.376 C 12.226 15.400,12.239 15.906,12.239 16.500 C 12.239 17.094,12.226 17.600,12.209 17.624 C 12.124 17.752,12.000 17.760,10.000 17.760 C 8.000 17.760,7.876 17.752,7.791 17.624 C 7.774 17.600,7.761 17.094,7.761 16.500 C 7.761 15.906,7.774 15.400,7.791 15.377 C 7.877 15.249,7.991 15.242,9.993 15.241 C 11.434 15.240,12.030 15.253,12.093 15.286 " stroke="none" fill-rule="evenodd"/></svg>
